img/image/design/email.svg

<svg xmlns="http://www.w3.org/2000/svg" fill="none" viewBox="0.05 0.1 20.4 12.02">
<path d="M0.0471191 0.0957031V0.696342L10.2471 7.11896L20.4471 0.696342V0.0957031H0.0471191Z" fill="#F6BB1A"/>
<path d="M10.2471 8.39802L4.23915 4.57799L0.0471191 1.93848V12.1175H20.4471V1.93848L16.2551 4.57799L10.2471 8.39802Z" fill="#F6BB1A"/>
</svg>

<svg xmlns="http://www.w3.org/2000/svg" fill="none" viewBox="0.05 0.1 20.4 12.02"><path d="M.047.096v.6l10.2 6.423 10.2-6.423v-.6H.047Z" fill="#F6BB1A"/><path d="M10.247 8.398 4.24 4.578.047 1.938v10.18h20.4V1.938l-4.192 2.64-6.008 3.82Z" fill="#F6BB1A"/></svg>
